source/img/sprite/vk.svg

<svg width="48" height="48" viewBox="0 0 48 48" fill="currentcollor" xmlns="http://www.w3.org/2000/svg">
<rect width="48" height="48" fill="currentcollor"/>
<g clip-path="url(#clip0_29549_1771)">
<path fill-rule="evenodd" clip-rule="evenodd" d="M35.45 17.948C35.616 17.402 35.45 17 34.655 17H32.03C31.362 17 31.054 17.347 30.887 17.73C30.887 17.73 29.552 20.926 27.661 23.002C27.049 23.604 26.771 23.795 26.437 23.795C26.27 23.795 26.019 23.604 26.019 23.057V17.948C26.019 17.292 25.835 17 25.279 17H21.151C20.734 17 20.483 17.304 20.483 17.593C20.483 18.214 21.429 18.358 21.526 20.106V23.904C21.526 24.737 21.373 24.888 21.039 24.888C20.149 24.888 17.984 21.677 16.699 18.003C16.45 17.288 16.198 17 15.527 17H12.9C12.15 17 12 17.347 12 17.73C12 18.412 12.89 21.8 16.145 26.281C18.315 29.341 21.37 31 24.153 31C25.822 31 26.028 30.632 26.028 29.997V27.684C26.028 26.947 26.186 26.8 26.715 26.8C27.105 26.8 27.772 26.992 29.33 28.467C31.11 30.216 31.403 31 32.405 31H35.03C35.78 31 36.156 30.632 35.94 29.904C35.702 29.18 34.852 28.129 33.725 26.882C33.113 26.172 32.195 25.407 31.916 25.024C31.527 24.533 31.638 24.314 31.916 23.877C31.916 23.877 35.116 19.451 35.449 17.948H35.45Z" fill="white"/>
</g>
<defs>
<clipPath id="clip0_29549_1771">
<rect width="24" height="24" fill="white" transform="translate(12 12)"/>
</clipPath>
</defs>
</svg>

<svg xmlns="http://www.w3.org/2000/svg" width="48" height="48" fill="none"><path fill="#81B3D2" d="M0 0h48v48H0z"/><g clip-path="url(#a)"><path fill="#fff" fill-rule="evenodd" d="M35.5 18c.1-.6 0-1-.8-1H32c-.6 0-1 .3-1.1.7 0 0-1.3 3.2-3.2 5.3-.7.6-1 .8-1.3.8-.1 0-.4-.2-.4-.7v-5.2c0-.6-.2-.9-.7-.9h-4.1c-.5 0-.7.3-.7.6 0 .6 1 .8 1 2.5V24c0 .8-.1 1-.5 1-.9 0-3-3.2-4.3-6.9-.3-.7-.5-1-1.2-1H13c-.8 0-.9.3-.9.7 0 .7.9 4.1 4.1 8.6 2.2 3 5.3 4.7 8 4.7 1.7 0 2-.4 2-1v-2.3c0-.8 0-.9.6-.9.4 0 1 .2 2.6 1.7 1.8 1.7 2.1 2.5 3.1 2.5H35c.8 0 1.2-.4 1-1.1-.3-.7-1.1-1.8-2.3-3L32 25c-.4-.5-.3-.7 0-1.1 0 0 3.2-4.4 3.5-6Z" clip-rule="evenodd"/></g><defs><clipPath id="a"><path fill="#fff" d="M12 12h24v24H12z"/></clipPath></defs></svg>
